polaris-icons/icons/new-icons/ExchangeMajor.svg

<svg width="20" height="20" viewBox="0 0 20 20" fill="none" xmlns="http://www.w3.org/2000/svg">
<path fill-rule="evenodd" clip-rule="evenodd" d="M15.5 11.3645C16.5143 11.683 17.25 12.6306 17.25 13.75C17.25 15.1307 16.1307 16.25 14.75 16.25C13.3693 16.25 12.25 15.1307 12.25 13.75C12.25 12.6306 12.9857 11.683 14 11.3645L14 9C14 7.75736 12.9926 6.75 11.75 6.75H11.3107L11.7803 7.21967C12.0732 7.51256 12.0732 7.98744 11.7803 8.28033C11.4874 8.57322 11.0126 8.57322 10.7197 8.28033L8.96967 6.53033C8.82902 6.38968 8.75 6.19891 8.75 6C8.75 5.80109 8.82902 5.61032 8.96967 5.46967L10.7197 3.71967C11.0126 3.42678 11.4874 3.42678 11.7803 3.71967C12.0732 4.01256 12.0732 4.48744 11.7803 4.78033L11.3107 5.25H11.75C13.8211 5.25 15.5 6.92893 15.5 9V11.3645ZM15.75 13.75C15.75 14.3023 15.3023 14.75 14.75 14.75C14.1977 14.75 13.75 14.3023 13.75 13.75C13.75 13.1977 14.1977 12.75 14.75 12.75C15.3023 12.75 15.75 13.1977 15.75 13.75Z" fill="#4A4A4A"/>
<path fill-rule="evenodd" clip-rule="evenodd" d="M6 11L6 8.63555C7.01428 8.31698 7.75 7.36941 7.75 6.25C7.75 4.86929 6.63071 3.75 5.25 3.75C3.86929 3.75 2.75 4.86929 2.75 6.25C2.75 7.36941 3.48572 8.31698 4.5 8.63555L4.5 11C4.5 13.0711 6.17893 14.75 8.25 14.75H8.68934L8.21967 15.2197C7.92678 15.5126 7.92678 15.9874 8.21967 16.2803C8.51256 16.5732 8.98744 16.5732 9.28033 16.2803L11.0303 14.5303C11.171 14.3897 11.25 14.1989 11.25 14C11.25 13.8011 11.171 13.6103 11.0303 13.4697L9.28033 11.7197C8.98744 11.4268 8.51256 11.4268 8.21967 11.7197C7.92678 12.0126 7.92678 12.4874 8.21967 12.7803L8.68934 13.25H8.25C7.00736 13.25 6 12.2426 6 11ZM6.25 6.25C6.25 6.80228 5.80228 7.25 5.25 7.25C4.69772 7.25 4.25 6.80228 4.25 6.25C4.25 5.69772 4.69772 5.25 5.25 5.25C5.80228 5.25 6.25 5.69772 6.25 6.25Z" fill="#4A4A4A"/>
</svg>

<svg viewBox="0 0 20 20" xmlns="http://www.w3.org/2000/svg"><path fill-rule="evenodd" d="M15.5 11.364a2.501 2.501 0 1 1-1.5 0v-2.364a2.25 2.25 0 0 0-2.25-2.25h-.44l.47.47a.75.75 0 0 1-1.06 1.06l-1.75-1.75a.75.75 0 0 1 0-1.06l1.75-1.75a.75.75 0 1 1 1.06 1.06l-.47.47h.44a3.75 3.75 0 0 1 3.75 3.75v2.364Zm.25 2.386a1 1 0 1 1-2 0 1 1 0 0 1 2 0Z" fill="#5C5F62"/><path fill-rule="evenodd" d="M6 11v-2.364a2.501 2.501 0 1 0-1.5 0v2.364a3.75 3.75 0 0 0 3.75 3.75h.44l-.47.47a.75.75 0 1 0 1.06 1.06l1.75-1.75a.75.75 0 0 0 0-1.06l-1.75-1.75a.75.75 0 0 0-1.06 1.06l.47.47h-.44a2.25 2.25 0 0 1-2.25-2.25Zm.25-4.75a1 1 0 1 1-2 0 1 1 0 0 1 2 0Z" fill="#5C5F62"/></svg>
